X:1
T:Горные вершины
T:Горные вершины
T:А. Варламов
C:А. Варламов
L:1/8
M:2/4
K:Eb
V:1 treble nm="Piano" snm="Pno."
V:1
 B,A GF | E2 B, z | B,>B, CB, | E2 z2 | B,A GF | E2 F z | B,B, F>B, | E2 z2 | G>G A>G | C2 F z | %10
 F>F G>F | B,2 z2 | E>D E>E | F2 B, z | B,>B, F>B, | E2 z2 |] %16

